X: 1
T: Morgan Magan
M: 4/4
L: 1/8
R: reel
K: Gmaj
D2 | D2G2 G2AB | cBAG Bcd2 | e2A2 A3G | GFEF D2EF | 
G3A GFGA | G2FE D2G2 | FGA2 A2EG | F2D2 D2EF | 
G4 AGAF | G6  B2 | c3B A2Bc | d2G2 e4 | 
d2B2 cBAG | AGFE D2EF | G4 AGAF | G6 || dc | 
B2d2 d2ef | g2G2 Bcd2 | g2G2 Bcd2 | edcB A3c | 
BABc d2B2 | e2c2 d2B2 | c2A2 d2G2 | F2D2 D2GF | 
E2C2 C3D | E2C2 C3E | F2D2 D2AG | GFEF D2Bc | 
dcdB edcB | cBAG AGFE | D2G2 AGAF | G6 ||
